X: 33121
T: Prince's Feather, The
R: reel
M: 4/4
K: Emajor
~F3 A cA (3AAA|cAcd cAGA|FAcd cdfd|cFAc dG (3GGG|
dG (3GGG dGcB|AcBG AFFE|Fffe ~f2 cB|AcBG AFF:|
~G3 F GC (3CCC|EGAc BAGA|F2 cF dFcF|Acfe dcBA|
G^FGA GC (3CCC|EGAc BAGA|Fffe ~f2 cB|AcBG AFF:|
~E3 G BG (3GGG|BGBc BGFG|EGBc Bcec|BEGB cF (3FFF|
cF (3FFF cFBA|GBAF GEED|Eeef ~e2 BA|GBAF GEE:|
~F3 E FB, (3B,B,B,|DFGB AGFG|E2 BE cEBE|GBed cBAG|
F^EFG FB, (3B,B,B,|DFGB AGFG|Eeed ~e2 BA|GBAF GEE:|
|:E3 c BG G2|BGBc BGFG|EGBe Bcec|BEGB cF F2|
cF F2 cFBA|GBAF GEFD|Ee e2 eBcA|GBAF GE E2:|
|:F3 G FB, B,2|FGAB AGFG|E2 BE cEBE|GBed cBAG|
F3 G FB, B,2|FGAB AGFG|Ee e2 eBcA|GBAF GE E2:|

